X:0709
T:Miss Sharp's Fancy.
M:6/8
L:1/8
Q:3/8=104
I: :| ||
Z:Jack Campin * www.campin.me.uk * 2009
K:D
 f    | d2A    AFA  | B2A    AFA  | d2A    AGF  |EEE TA2 \
 B/c/ | d2A    AFA  | B2A    ABc  | dgf    eac  |d3  Td2:|
 f/g/ | afd    dfa  | ged    ceg  | fed    dcd  |ecA  A2 \
(f/g/)| afd    dfa  | ged   (ce).g|(fa).d (eg).c|d3   d2
 f/g/ | afd   (df).a| ged   (ce).g| fed    dcd  |ecA TA2 \
 G    |(FA).d (FA).d|(GB).d (GB).d|(Ag).f (ea).c|d3   D2|]

